X: 199
T:A Bruxa (C-Whistle 1 note high)
S:Rosa Michaelson, Edinburgh fiddler
Z:Nigel Gatherer
M:3/4
L:1/8
K:Am
"Am"ec BA Bc| e2 c2 Ad| "F"cB F2 c2| "Em"B6| "Am"ec BA Bc|
e2 c2 Ad| "F"cB F2 B2| "Am"A6:||:
